src/assets/fail-payment.svg

<svg xmlns="http://www.w3.org/2000/svg" width="750" height="500" fill="none"><path fill="#F5F5F5" d="m219.882 122.262-112.204 75.055 110.515 165.217 112.205-75.055z"/><path fill="#E0E0E0" d="m272.419 279.659-1.274 7.881-55.778-8.035 1.273-7.881z"/><path fill="#E0E0E0" d="m244.328 251.546 8.004 1.154-8.874 54.917-8.005-1.152zM192.952 181.745c.08.12-11.165 7.781-25.112 17.11-13.952 9.332-25.324 16.798-25.404 16.678s11.162-7.779 25.115-17.111c13.947-9.329 25.321-16.796 25.401-16.677M234.216 171.387c.08.12-18.619 12.767-41.759 28.244-23.149 15.483-41.973 27.934-42.053 27.814-.08-.119 18.615-12.764 41.763-28.247 23.14-15.477 41.969-27.93 42.049-27.811M242.487 183.753c.08.12-18.619 12.767-41.759 28.244-23.149 15.483-41.973 27.934-42.053 27.814s18.615-12.764 41.763-28.247c23.141-15.477 41.969-27.93 42.049-27.811M250.758 196.12c.08.12-18.619 12.767-41.759 28.244-23.149 15.483-41.973 27.934-42.053 27.814-.08-.119 18.615-12.764 41.763-28.247 23.141-15.478 41.969-27.931 42.049-27.811M259.03 208.485c.08.12-18.619 12.766-41.759 28.244-23.149 15.483-41.973 27.934-42.053 27.814s18.615-12.764 41.763-28.247c23.14-15.477 41.969-27.93 42.049-27.811"/><path fill="#F5F5F5" d="m595.078 232.976-94.232 63.033 92.814 138.754 94.232-63.033z"/><path fill="#E0E0E0" d="m639.198 365.18-1.069 6.618-46.845-6.749 1.07-6.618z"/><path fill="#E0E0E0" d="m615.607 341.568 6.722.969-7.453 46.121-6.722-.968zM572.46 282.948c.08.12-9.353 6.569-21.067 14.404-11.718 7.837-21.278 14.092-21.358 13.972s9.351-6.568 21.069-14.405c11.713-7.834 21.276-14.09 21.356-13.971M607.114 274.249c.08.12-15.613 10.756-35.047 23.755-19.441 13.003-35.26 23.444-35.34 23.324s15.61-10.754 35.051-23.757c19.433-12.998 35.256-23.441 35.336-23.322M614.06 284.635c.08.12-15.613 10.757-35.047 23.755-19.441 13.003-35.26 23.444-35.34 23.324s15.61-10.754 35.051-23.757c19.433-12.999 35.256-23.442 35.336-23.322M621.006 295.02c.08.12-15.613 10.756-35.047 23.755-19.441 13.003-35.26 23.444-35.34 23.324s15.61-10.754 35.051-23.757c19.433-12.998 35.256-23.441 35.336-23.322M627.954 305.405c.08.12-15.613 10.756-35.047 23.755-19.441 13.003-35.26 23.444-35.34 23.324s15.61-10.754 35.051-23.757c19.433-12.998 35.256-23.442 35.336-23.322"/><path fill="#F5F5F5" d="M445.99 128.328 343.172 73.34l-80.969 151.395 102.818 54.989z"/><path fill="#E0E0E0" d="m347.422 232.368-6.523 2.234-16.558-45.774 6.524-2.234z"/><path fill="#E0E0E0" d="m357.423 199.528 2.377 6.569-45.46 15.569-2.376-6.569zM389.724 131.993c-.081.151-10.509-5.27-23.29-12.105-12.785-6.838-23.081-12.501-23-12.652s10.507 5.269 23.292 12.106c12.781 6.836 23.079 12.501 22.998 12.651M414.397 159.227c-.081.151-17.34-8.923-38.544-20.263-21.212-11.345-38.337-20.66-38.256-20.811s17.336 8.921 38.548 20.266c21.204 11.34 38.333 20.657 38.252 20.808M408.336 170.559c-.081.151-17.34-8.923-38.544-20.264-21.212-11.345-38.337-20.66-38.256-20.811s17.336 8.921 38.548 20.266c21.204 11.34 38.332 20.658 38.252 20.809M402.276 181.89c-.081.151-17.34-8.923-38.544-20.264-21.212-11.344-38.337-20.66-38.256-20.811.08-.151 17.336 8.921 38.548 20.266 21.204 11.341 38.333 20.659 38.252 20.809M396.215 193.222c-.081.151-17.339-8.923-38.544-20.264-21.212-11.344-38.337-20.66-38.256-20.811s17.336 8.921 38.548 20.266c21.204 11.341 38.332 20.659 38.252 20.809"/><path fill="#263238" d="M663.667 439.828c0 .144-129.251.26-288.653.26-159.457 0-288.68-.117-288.68-.26s129.223-.26 288.68-.26c159.402 0 288.653.117 288.653.26"/><path fill="#E8505B" d="M118.287 377.201c3.381.119 6.555 1.954 8.785 4.499s3.597 5.743 4.472 9.012c1.692 6.323.652 13.786-1.151 20.078-6.846-2.447-11.067-9.747-12.976-13.586-3.018-6.066-4.787-18.862.87-20.003M140.243 418.454c-2.16-3.101-2.211-7.414-.503-10.786s4.988-5.803 8.601-6.913c1.671-.513 3.609-.729 5.062.242 1.359.907 1.946 2.688 1.77 4.312s-.998 3.111-1.969 4.425c-3.329 4.507-7.378 8.257-12.961 8.72"/><path fill="#263238" d="M140.995 439.584c-.033.005-.137-.464-.306-1.314l-.704-3.604c-.54-3.03-1.397-7.339-.749-12.103.623-4.743 2.511-8.797 4.49-11.218.974-1.225 1.907-2.092 2.597-2.625.334-.281.628-.453.815-.585.191-.126.296-.185.306-.172.075.085-1.6 1.117-3.451 3.586-1.875 2.429-3.672 6.414-4.286 11.077-.638 4.667.152 8.937.609 11.983.245 1.53.442 2.77.556 3.631.113.861.155 1.34.123 1.344"/><path fill="#263238" d="M120.494 386.826c.015-.007.11.172.276.518l.705 1.524a312 312 0 0 1 2.486 5.653 574 574 0 0 1 7.697 18.864 573 573 0 0 1 7.034 19.124 307 307 0 0 1 1.975 5.851l.506 1.601c.111.368.161.563.146.569-.016.005-.096-.18-.236-.538l-.59-1.572-2.117-5.799a1026 1026 0 0 0-7.161-19.065 1027 1027 0 0 0-7.564-18.905l-2.347-5.71-.624-1.559c-.136-.358-.201-.549-.186-.556"/><path fill="#E8505B" d="M132.869 425.604c-4.037-6.869-11.575-11.553-19.522-12.129-2.024-.147-4.458.194-5.36 2.011-.904 1.82.305 3.975 1.684 5.468 5.736 6.213 15.44 8.379 23.274 5.195"/><path fill="#263238" d="M116.43 418.892c.002-.033.452-.014 1.267.047.408.028.907.064 1.478.171.57.106 1.233.168 1.939.365.711.174 1.495.348 2.307.641.828.245 1.678.599 2.571.977 1.764.801 3.635 1.849 5.417 3.212a27.4 27.4 0 0 1 4.478 4.431c.584.775 1.142 1.509 1.577 2.255.481.717.838 1.438 1.173 2.088.359.639.571 1.271.806 1.802.237.531.385 1.009.503 1.401.243.781.361 1.215.33 1.224-.101.035-.588-1.713-1.936-4.273-.35-.633-.719-1.333-1.207-2.03-.442-.726-1.004-1.439-1.587-2.194a28.5 28.5 0 0 0-4.426-4.328c-1.75-1.338-3.581-2.379-5.308-3.189-.874-.383-1.706-.746-2.517-1.003-.794-.304-1.564-.494-2.261-.688-2.805-.71-4.615-.806-4.604-.909"/><path fill="#E8505B" d="m298.958 234.545-35.361 181.799-4.629 23.799 236.063-1.165c10.594-.052 19.983-9.459 23.392-23.435l41.859-171.637c2.587-10.61-3.09-21.645-11.133-21.636l-238.923.251c-5.275.007-9.887 4.929-11.268 12.024"/><path fill="#000" d="m298.958 234.545-35.361 181.799-4.629 23.799 236.063-1.165c10.594-.052 19.983-9.459 23.392-23.435l41.859-171.637c2.587-10.61-3.09-21.645-11.133-21.636l-238.923.251c-5.275.007-9.887 4.929-11.268 12.024" opacity=".5"/><path fill="#E8505B" d="m472.387 404.026-24.994-201.408c-1.024-8.253-7.598-14.409-15.36-14.383l-54.806.179c-4.056.013-7.945 1.738-10.827 4.801l-26.025 27.665-152.426.795c-9.315.049-16.471 8.862-15.236 18.765l23.206 186.153c1.027 8.241 7.589 14.389 15.34 14.373l265.647-.525c29.587.613 32.411-8.125 32.411-8.125-33.907 7.515-36.927-28.267-36.93-28.29"/><g fill="#fff" opacity=".5"><path d="m357.842 363.718-8.959 9.622-69.003-62.075 8.96-9.622z"/><path d="m345.128 299.51 9.902 8.907-62.435 67.057-9.902-8.908z"/></g><path fill="#E8505B" d="M510.319 103.785a1.87 1.87 0 0 1-1.131-1.636l-.399-9.284a1.862 1.862 0 0 1 2.292-1.896c1.492.352 3.138.027 4.515-.892 1.268-.846 2.119-2.092 2.334-3.419.216-1.322-.193-2.785-1.122-4.015-.995-1.317-2.465-2.204-3.941-2.373-3.011-.347-6.262 1.96-7.099 5.038a1.865 1.865 0 0 1-2.289 1.311 1.857 1.857 0 0 1-1.312-2.29c1.314-4.838 6.306-8.322 11.128-7.767 2.5.288 4.869 1.684 6.489 3.83 1.542 2.04 2.208 4.542 1.829 6.866-.382 2.345-1.82 4.503-3.946 5.922a9.76 9.76 0 0 1-5.06 1.652l.31 7.156a1.866 1.866 0 0 1-2.598 1.797M513.055 107.577a1.527 1.527 0 1 1-3.046.208 1.527 1.527 0 0 1 3.046-.208"/><path fill="#263238" d="M478.186 90.694c.012 0 .043-.206.09-.609l.196-1.788c.045-.791.247-1.747.484-2.874.132-.56.2-1.183.405-1.813l.62-2.019c.968-2.808 2.461-6.176 4.973-9.526 2.494-3.343 6.001-6.646 10.502-9.148 2.217-1.322 4.752-2.243 7.41-3.056 2.699-.639 5.56-1.187 8.549-1.116 1.495-.08 3.002.139 4.538.268.767.073 1.522.278 2.293.412.771.142 1.546.293 2.301.555 3.087.792 6.086 2.248 8.944 4.053 5.737 3.609 10.568 9.481 13.218 16.599 1.329 3.561 1.965 7.465 1.96 11.408.079 3.951-.686 7.964-2.092 11.742l-.451 1.142-.059.151.061.141 7.351 16.933.421-.478-14.976-5.754-.185-.071-.145.141a33.5 33.5 0 0 1-14.142 8.165c-5.04 1.421-10.116 1.494-14.733.673a32.9 32.9 0 0 1-12.267-4.864c-3.484-2.275-6.278-5.041-8.432-7.852-2.138-2.842-3.546-5.756-4.61-8.359-.936-2.66-1.51-5.021-1.788-6.975l-.314-2.601-.05-1.911-.039-1.171q-.018-.396-.033-.398-.013 0-.024.397l-.015 1.174q-.002.794-.003 1.922l.265 2.622c.246 1.973.792 4.363 1.709 7.062 1.044 2.641 2.443 5.604 4.585 8.5a34.5 34.5 0 0 0 8.492 8.019 33.3 33.3 0 0 0 12.429 5.005c4.686.854 9.847.801 14.98-.629 5.118-1.426 10.182-4.185 14.426-8.281l-.331.07 14.968 5.777.755.291-.333-.769-7.342-16.937.002.291.461-1.167c1.438-3.861 2.217-7.966 2.136-12.004.003-4.03-.653-8.021-2.015-11.658-2.715-7.271-7.658-13.246-13.51-16.908-2.915-1.832-5.974-3.302-9.117-4.1-.769-.263-1.558-.414-2.342-.556-.784-.134-1.553-.339-2.333-.411-1.561-.125-3.094-.34-4.612-.253-3.038-.058-5.944.51-8.68 1.175-2.696.839-5.263 1.79-7.505 3.144-4.551 2.567-8.081 5.942-10.576 9.349-2.514 3.413-3.987 6.836-4.924 9.682l-.595 2.045c-.197.638-.256 1.267-.378 1.833-.217 1.14-.399 2.104-.422 2.901l-.13 1.8q-.037.61-.021.614"/></svg>

<svg width="750" height="500" viewBox="0 0 750 500" fill="none" xmlns="http://www.w3.org/2000/svg">
<path d="M219.882 122.262L107.678 197.317L218.193 362.534L330.398 287.479L219.882 122.262Z" fill="#F5F5F5"/>
<path d="M272.419 279.659L271.145 287.54L215.367 279.505L216.64 271.624L272.419 279.659Z" fill="#E0E0E0"/>
<path d="M244.328 251.546L252.332 252.7L243.458 307.617L235.453 306.465L244.328 251.546Z" fill="#E0E0E0"/>
<path d="M192.952 181.745C193.032 181.865 181.787 189.526 167.84 198.855C153.888 208.187 142.516 215.653 142.436 215.533C142.356 215.414 153.598 207.754 167.551 198.422C181.498 189.093 192.872 181.626 192.952 181.745Z" fill="#E0E0E0"/>
<path d="M234.216 171.387C234.296 171.507 215.597 184.154 192.457 199.631C169.308 215.114 150.484 227.565 150.404 227.445C150.324 227.326 169.019 214.681 192.167 199.198C215.307 183.721 234.136 171.268 234.216 171.387Z" fill="#E0E0E0"/>
<path d="M242.487 183.753C242.567 183.873 223.868 196.52 200.728 211.997C177.579 227.48 158.755 239.931 158.675 239.811C158.595 239.691 177.29 227.047 200.438 211.564C223.579 196.087 242.407 183.634 242.487 183.753Z" fill="#E0E0E0"/>
<path d="M250.758 196.12C250.838 196.24 232.139 208.887 208.999 224.364C185.85 239.847 167.026 252.298 166.946 252.178C166.866 252.059 185.561 239.414 208.709 223.931C231.85 208.453 250.678 196 250.758 196.12Z" fill="#E0E0E0"/>
<path d="M259.03 208.485C259.11 208.605 240.411 221.251 217.271 236.729C194.122 252.212 175.298 264.663 175.218 264.543C175.138 264.423 193.833 251.779 216.981 236.296C240.121 220.819 258.95 208.366 259.03 208.485Z" fill="#E0E0E0"/>
<path d="M595.078 232.976L500.846 296.009L593.66 434.763L687.892 371.73L595.078 232.976Z" fill="#F5F5F5"/>
<path d="M639.198 365.18L638.129 371.798L591.284 365.049L592.354 358.431L639.198 365.18Z" fill="#E0E0E0"/>
<path d="M615.607 341.568L622.329 342.537L614.876 388.658L608.154 387.69L615.607 341.568Z" fill="#E0E0E0"/>
<path d="M572.46 282.948C572.54 283.068 563.107 289.517 551.393 297.352C539.675 305.189 530.115 311.444 530.035 311.324C529.955 311.204 539.386 304.756 551.104 296.919C562.817 289.085 572.38 282.829 572.46 282.948Z" fill="#E0E0E0"/>
<path d="M607.114 274.249C607.194 274.369 591.501 285.005 572.067 298.004C552.626 311.007 536.807 321.448 536.727 321.328C536.647 321.208 552.337 310.574 571.778 297.571C591.211 284.573 607.034 274.13 607.114 274.249Z" fill="#E0E0E0"/>
<path d="M614.06 284.635C614.14 284.755 598.447 295.392 579.013 308.39C559.572 321.393 543.753 331.834 543.673 331.714C543.593 331.594 559.283 320.96 578.724 307.957C598.157 294.958 613.98 284.515 614.06 284.635Z" fill="#E0E0E0"/>
<path d="M621.006 295.02C621.086 295.14 605.393 305.776 585.959 318.775C566.518 331.778 550.699 342.219 550.619 342.099C550.539 341.98 566.229 331.345 585.67 318.342C605.103 305.344 620.926 294.901 621.006 295.02Z" fill="#E0E0E0"/>
<path d="M627.954 305.405C628.034 305.525 612.341 316.161 592.907 329.16C573.466 342.163 557.647 352.604 557.567 352.484C557.487 352.365 573.177 341.73 592.618 328.727C612.051 315.729 627.874 305.285 627.954 305.405Z" fill="#E0E0E0"/>
<path d="M445.99 128.328L343.172 73.3398L262.203 224.735L365.021 279.724L445.99 128.328Z" fill="#F5F5F5"/>
<path d="M347.422 232.368L340.899 234.602L324.341 188.828L330.865 186.594L347.422 232.368Z" fill="#E0E0E0"/>
<path d="M357.423 199.528L359.8 206.097L314.34 221.666L311.964 215.097L357.423 199.528Z" fill="#E0E0E0"/>
<path d="M389.724 131.993C389.643 132.144 379.215 126.723 366.434 119.888C353.649 113.05 343.353 107.387 343.434 107.236C343.515 107.086 353.941 112.505 366.726 119.342C379.507 126.178 389.805 131.843 389.724 131.993Z" fill="#E0E0E0"/>
<path d="M414.397 159.227C414.316 159.378 397.057 150.304 375.853 138.964C354.641 127.619 337.516 118.304 337.597 118.153C337.678 118.003 354.933 127.074 376.145 138.419C397.349 149.759 414.478 159.076 414.397 159.227Z" fill="#E0E0E0"/>
<path d="M408.336 170.559C408.255 170.71 390.996 161.636 369.792 150.295C348.58 138.95 331.455 129.635 331.536 129.484C331.617 129.334 348.872 138.405 370.084 149.75C391.288 161.09 408.416 170.408 408.336 170.559Z" fill="#E0E0E0"/>
<path d="M402.276 181.89C402.195 182.041 384.936 172.967 363.732 161.626C342.52 150.282 325.395 140.966 325.476 140.815C325.556 140.664 342.812 149.736 364.024 161.081C385.228 172.422 402.357 181.74 402.276 181.89Z" fill="#E0E0E0"/>
<path d="M396.215 193.222C396.134 193.373 378.876 184.299 357.671 172.958C336.459 161.614 319.334 152.298 319.415 152.147C319.496 151.997 336.751 161.068 357.963 172.413C379.167 183.754 396.295 193.072 396.215 193.222Z" fill="#E0E0E0"/>
<path d="M663.667 439.828C663.667 439.972 534.416 440.088 375.014 440.088C215.557 440.088 86.334 439.971 86.334 439.828C86.334 439.684 215.557 439.568 375.014 439.568C534.416 439.568 663.667 439.685 663.667 439.828Z" fill="#263238"/>
<path d="M118.287 377.201C121.668 377.32 124.842 379.155 127.072 381.7C129.302 384.244 130.669 387.443 131.544 390.712C133.236 397.035 132.196 404.498 130.393 410.79C123.547 408.343 119.326 401.043 117.417 397.204C114.399 391.138 112.63 378.342 118.287 377.201Z" fill="#E8505B"/>
<path d="M140.243 418.454C138.083 415.353 138.032 411.04 139.74 407.668C141.447 404.296 144.728 401.865 148.341 400.755C150.012 400.242 151.95 400.026 153.403 400.997C154.762 401.904 155.349 403.685 155.173 405.309C154.998 406.933 154.175 408.42 153.204 409.734C149.875 414.241 145.826 417.991 140.243 418.454Z" fill="#E8505B"/>
<path d="M140.995 439.584C140.962 439.589 140.858 439.12 140.689 438.27C140.506 437.332 140.269 436.121 139.985 434.666C139.445 431.636 138.588 427.327 139.236 422.563C139.859 417.82 141.747 413.766 143.726 411.345C144.7 410.12 145.633 409.253 146.323 408.72C146.657 408.439 146.951 408.267 147.138 408.135C147.329 408.009 147.434 407.95 147.444 407.963C147.519 408.048 145.844 409.08 143.993 411.549C142.118 413.978 140.321 417.963 139.707 422.626C139.069 427.293 139.859 431.563 140.316 434.609C140.561 436.139 140.758 437.379 140.872 438.24C140.985 439.101 141.027 439.58 140.995 439.584Z" fill="#263238"/>
<path d="M120.494 386.826C120.509 386.819 120.604 386.998 120.77 387.344C120.952 387.738 121.186 388.243 121.475 388.868C122.08 390.195 122.93 392.126 123.961 394.521C126.024 399.31 128.78 405.967 131.658 413.385C134.535 420.806 136.987 427.582 138.692 432.509C139.546 434.973 140.219 436.972 140.667 438.36C140.875 439.017 141.043 439.547 141.173 439.961C141.284 440.329 141.334 440.524 141.319 440.53C141.303 440.535 141.223 440.35 141.083 439.992C140.931 439.586 140.735 439.065 140.493 438.42C139.973 436.995 139.255 435.028 138.376 432.621C136.59 427.725 134.09 420.972 131.215 413.556C128.339 406.143 125.633 399.471 123.651 394.651C122.677 392.281 121.881 390.344 121.304 388.941C121.048 388.302 120.841 387.785 120.68 387.382C120.544 387.024 120.479 386.833 120.494 386.826Z" fill="#263238"/>
<path d="M132.869 425.604C128.832 418.735 121.294 414.051 113.347 413.475C111.323 413.328 108.889 413.669 107.987 415.486C107.083 417.306 108.292 419.461 109.671 420.954C115.407 427.167 125.111 429.333 132.945 426.149" fill="#E8505B"/>
<path d="M116.43 418.892C116.432 418.859 116.882 418.878 117.697 418.939C118.105 418.967 118.604 419.003 119.175 419.11C119.745 419.216 120.408 419.278 121.114 419.475C121.825 419.649 122.609 419.823 123.421 420.116C124.249 420.361 125.099 420.715 125.992 421.093C127.756 421.894 129.627 422.942 131.409 424.305C133.178 425.684 134.672 427.225 135.887 428.736C136.471 429.511 137.029 430.245 137.464 430.991C137.945 431.708 138.302 432.429 138.637 433.079C138.996 433.718 139.208 434.35 139.443 434.881C139.68 435.412 139.828 435.89 139.946 436.282C140.189 437.063 140.307 437.497 140.276 437.506C140.175 437.541 139.688 435.793 138.34 433.233C137.99 432.6 137.621 431.9 137.133 431.203C136.691 430.477 136.129 429.764 135.546 429.009C134.332 427.538 132.857 426.035 131.12 424.681C129.37 423.343 127.539 422.302 125.812 421.492C124.938 421.109 124.106 420.746 123.295 420.489C122.501 420.185 121.731 419.995 121.034 419.801C118.229 419.091 116.419 418.995 116.43 418.892Z" fill="#263238"/>
<path d="M298.958 234.545L263.597 416.344L258.968 440.143L495.031 438.978C505.625 438.926 515.014 429.519 518.423 415.543L560.282 243.906C562.869 233.296 557.192 222.261 549.149 222.27L310.226 222.521C304.951 222.528 300.339 227.45 298.958 234.545Z" fill="#E8505B"/>
<g opacity="0.5">
<path d="M298.958 234.545L263.597 416.344L258.968 440.143L495.031 438.978C505.625 438.926 515.014 429.519 518.423 415.543L560.282 243.906C562.869 233.296 557.192 222.261 549.149 222.27L310.226 222.521C304.951 222.528 300.339 227.45 298.958 234.545Z" fill="black"/>
</g>
<path d="M472.387 404.026L447.393 202.618C446.369 194.365 439.795 188.209 432.033 188.235L377.227 188.414C373.171 188.427 369.282 190.152 366.4 193.215L340.375 220.88L187.949 221.675C178.634 221.724 171.478 230.537 172.713 240.44L195.919 426.593C196.946 434.834 203.508 440.982 211.259 440.966L476.906 440.441C506.493 441.054 509.317 432.316 509.317 432.316C475.41 439.831 472.39 404.049 472.387 404.026Z" fill="#E8505B"/>
<g opacity="0.5">
<path d="M357.842 363.718L348.883 373.34L279.88 311.265L288.84 301.643L357.842 363.718Z" fill="white"/>
<path d="M345.128 299.51L355.03 308.417L292.595 375.474L282.693 366.566L345.128 299.51Z" fill="white"/>
</g>
<path d="M510.319 103.785C509.68 103.511 509.221 102.89 509.188 102.149L508.789 92.865C508.763 92.281 509.013 91.719 509.463 91.347C509.913 90.974 510.512 90.835 511.081 90.969C512.573 91.321 514.219 90.996 515.596 90.077C516.864 89.231 517.715 87.985 517.93 86.658C518.146 85.336 517.737 83.873 516.808 82.643C515.813 81.326 514.343 80.439 512.867 80.27C509.856 79.923 506.605 82.23 505.768 85.308C505.498 86.302 504.473 86.89 503.479 86.619C502.468 86.341 501.897 85.323 502.167 84.329C503.481 79.491 508.473 76.007 513.295 76.562C515.795 76.85 518.164 78.246 519.784 80.392C521.326 82.432 521.992 84.934 521.613 87.258C521.231 89.603 519.793 91.761 517.667 93.18C516.131 94.205 514.369 94.771 512.607 94.832L512.917 101.988C512.961 103.018 512.162 103.888 511.132 103.932C510.844 103.945 510.568 103.891 510.319 103.785Z" fill="#E8505B"/>
<path d="M513.055 107.577C513.113 108.418 512.478 109.147 511.637 109.204C510.796 109.262 510.067 108.627 510.009 107.786C509.951 106.945 510.586 106.216 511.427 106.158C512.268 106.1 512.997 106.736 513.055 107.577Z" fill="#E8505B"/>
<path d="M478.186 90.694C478.198 90.694 478.229 90.488 478.276 90.085C478.323 89.65 478.389 89.058 478.472 88.297C478.517 87.506 478.719 86.55 478.956 85.423C479.088 84.863 479.156 84.24 479.361 83.61C479.556 82.976 479.763 82.303 479.981 81.591C480.949 78.783 482.442 75.415 484.954 72.065C487.448 68.722 490.955 65.419 495.456 62.917C497.673 61.595 500.208 60.674 502.866 59.861C505.565 59.222 508.426 58.674 511.415 58.745C512.91 58.665 514.417 58.884 515.953 59.013C516.72 59.086 517.475 59.291 518.246 59.425C519.017 59.567 519.792 59.718 520.547 59.98C523.634 60.772 526.633 62.228 529.491 64.033C535.228 67.642 540.059 73.514 542.709 80.632C544.038 84.193 544.674 88.097 544.669 92.04C544.748 95.991 543.983 100.004 542.577 103.782L542.126 104.924L542.067 105.075L542.128 105.216C544.636 110.993 547.096 116.659 549.479 122.149L549.9 121.671C544.736 119.687 539.728 117.763 534.924 115.917L534.739 115.846L534.594 115.987C530.439 120.013 525.476 122.734 520.452 124.152C515.412 125.573 510.336 125.646 505.719 124.825C501.092 124.006 496.926 122.236 493.452 119.961C489.968 117.686 487.174 114.92 485.02 112.109C482.882 109.267 481.474 106.353 480.41 103.75C479.474 101.09 478.9 98.729 478.622 96.775C478.504 95.799 478.399 94.931 478.308 94.174C478.288 93.426 478.272 92.79 478.258 92.263C478.242 91.772 478.229 91.384 478.219 91.092C478.207 90.829 478.196 90.694 478.186 90.694C478.177 90.694 478.169 90.827 478.162 91.091C478.158 91.384 478.153 91.771 478.147 92.265C478.146 92.794 478.144 93.435 478.144 94.187C478.221 94.95 478.309 95.825 478.409 96.809C478.655 98.782 479.201 101.172 480.118 103.871C481.162 106.512 482.561 109.475 484.703 112.371C486.861 115.236 489.674 118.06 493.195 120.39C496.706 122.72 500.927 124.541 505.624 125.395C510.31 126.249 515.471 126.196 520.604 124.766C525.722 123.34 530.786 120.581 535.03 116.485L534.699 116.555C539.501 118.408 544.504 120.34 549.667 122.332L550.422 122.623L550.089 121.854C547.708 116.362 545.252 110.695 542.747 104.917L542.749 105.208L543.21 104.041C544.648 100.18 545.427 96.075 545.346 92.037C545.349 88.007 544.693 84.016 543.331 80.379C540.616 73.108 535.673 67.133 529.821 63.471C526.906 61.639 523.847 60.169 520.704 59.371C519.935 59.108 519.146 58.957 518.362 58.815C517.578 58.681 516.809 58.476 516.029 58.404C514.468 58.279 512.935 58.064 511.417 58.151C508.379 58.093 505.473 58.661 502.737 59.326C500.041 60.165 497.474 61.116 495.232 62.47C490.681 65.037 487.151 68.412 484.656 71.819C482.142 75.232 480.669 78.655 479.732 81.501C479.522 82.222 479.323 82.905 479.137 83.546C478.94 84.184 478.881 84.813 478.759 85.379C478.542 86.519 478.36 87.483 478.337 88.28C478.282 89.045 478.239 89.643 478.207 90.08C478.182 90.486 478.175 90.693 478.186 90.694Z" fill="#263238"/>
</svg>
